X: 201495
T: Tom Barrett's #2
S: B.Breathnach: "Ceol Rince na hEireann" II/123 (gan ainm) 
Z: B.Black
L: 1/8
M: 2/4
R: polka
K: Edor
Bc/B/ AF|AF EF/A/|Bc/B/ AF|E2 EF/A/|
Bc/B/ AF|AF EF/A/|Bc/B/ AF|E2 E2 ||
f>e dc|B/A/B/c/ de|ff/e/ dc|BA/F/ E2|
ff/e/ dc|B/A/B/c/ de|ff/e/ dc|BA/F/ E2 ||
